large-file-uploader-app/assets/logo.svg

<?xml version="1.0" encoding="UTF-8"?>
<svg width="18px" height="18px" viewBox="0 0 18 18" version="1.1" xmlns="http://www.w3.org/2000/svg" xmlns:xlink="http://www.w3.org/1999/xlink">
    <!-- Generator: Sketch 51.2 (57519) - http://www.bohemiancoding.com/sketch -->
    <title>large-file-uploader</title>
    <desc>Created with Sketch.</desc>
    <defs>
        <path d="M11.3022159,0.6841222 C10.8671853,0.24911609 10.2891813,0.00987372709 9.67441955,0.00987372709 C9.05965784,0.00987372709 8.48162933,0.24909165 8.04662322,0.6841222 L3.08502648,5.64503462 C2.77698574,5.95307536 2.61458248,6.34198778 2.62594705,6.74160489 C2.63731161,7.1164888 2.80035031,7.47932383 3.08434216,7.76397556 C3.36701426,8.04662322 3.7438778,8.20298982 4.14415479,8.20298982 C4.54443177,8.20298982 4.92129532,8.04662322 5.20394297,7.76397556 L7.86549898,5.10241955 C8.09403666,4.87388187 8.09403666,4.50369043 7.86549898,4.27581263 C7.6369613,4.04793483 7.26676986,4.04727495 7.03889206,4.27581263 L4.37665173,6.93736864 C4.25301018,7.06167006 4.03652138,7.06232994 3.91156008,6.93736864 C3.83872912,6.86453768 3.79730346,6.78300611 3.79461507,6.70817108 C3.792611,6.63133198 3.83203259,6.5524888 3.91156008,6.4729613 L8.87315682,1.51136456 C9.30149084,1.08369043 10.0472261,1.08369043 10.4755601,1.51136456 C10.9172627,1.95306721 10.9172627,2.67208961 10.4755601,3.11376782 L4.6613279,8.928 C3.86348676,9.7252057 2.56509165,9.72584114 1.76722607,8.928 C0.969360489,8.13015886 0.969384929,6.83176375 1.76722607,6.03389817 L5.90153157,1.89959267 C6.13006925,1.67107943 6.13006925,1.30086354 5.90153157,1.07298574 C5.67299389,0.844472505 5.30280244,0.844472505 5.07492464,1.07298574 L0.940619145,5.20729124 C-0.312977597,6.46088798 -0.312977597,8.50164562 0.940619145,9.75524236 C1.56742974,10.382053 2.39134827,10.6954216 3.21460692,10.6954216 C4.0385499,10.6954216 4.86178411,10.3820285 5.4885947,9.75524236 L11.3028269,3.94101018 C12.2002363,3.04223218 12.2002363,1.58216701 11.302167,0.68407332 L11.3022159,0.6841222 Z" id="path-1"></path>
    </defs>
    <g id="large-file-uploader" stroke="none" stroke-width="1" fill="none" fill-rule="evenodd">
        <rect fill="#1B324B" x="0" y="0" width="18" height="18"></rect>
        <g id="Group">
            <rect id="Rectangle" fill-rule="nonzero" x="0" y="0" width="18" height="18"></rect>
            <g id="Icons/paperclip" transform="translate(3.000000, 3.000000)">
                <g id="paperclip" transform="translate(0.000000, 0.750000)">
                    <mask id="mask-2" fill="white">
                        <use xlink:href="#path-1"></use>
                    </mask>
                    <use id="Shape" fill="#000000" fill-rule="nonzero" xlink:href="#path-1"></use>
                    <g id="Color/White" mask="url(#mask-2)" fill="#FFFFFF">
                        <g transform="translate(0.000000, -0.750000)" id="Mask">
                            <rect x="0" y="0" width="12" height="12"></rect>
                        </g>
                    </g>
                </g>
            </g>
        </g>
    </g>
</svg>

<svg xmlns="http://www.w3.org/2000/svg" xmlns:xlink="http://www.w3.org/1999/xlink" width="18" height="18">
  <defs>
    <path id="a" d="M11.302.684A2.287 2.287 0 0 0 9.674.01c-.614 0-1.192.24-1.627.674L3.085 5.645c-.308.308-.47.697-.46 1.097.012.374.175.737.46 1.022.282.283.659.439 1.06.439.4 0 .776-.156 1.059-.439l2.661-2.662a.584.584 0 1 0-.826-.826L4.377 6.937a.336.336 0 0 1-.465 0 .358.358 0 0 1-.117-.229c-.002-.077.037-.156.117-.235l4.961-4.962a1.161 1.161 0 0 1 1.603 0c.441.442.441 1.161 0 1.603L4.66 8.928a2.05 2.05 0 0 1-2.894 0 2.049 2.049 0 0 1 0-2.894L5.902 1.9a.584.584 0 1 0-.827-.827L.94 5.207a3.22 3.22 0 0 0 0 4.548c.626.627 1.45.94 2.274.94.824 0 1.647-.313 2.274-.94l5.814-5.814a2.306 2.306 0 0 0 0-3.257z"/>
  </defs>
  <g fill="none" fill-rule="evenodd">
    <path fill="#1B324B" d="M0 0h18v18H0z"/>
    <path d="M0 0h18v18H0z"/>
    <g transform="translate(3 3.75)">
      <mask id="b" fill="#fff">
        <use xlink:href="#a"/>
      </mask>
      <use fill="#000" fill-rule="nonzero" xlink:href="#a"/>
      <g fill="#FFF" mask="url(#b)">
        <path d="M0-.75h12v12H0z"/>
      </g>
    </g>
  </g>
</svg>
